build/cards/PaymentsMasterUAH.svg

<svg xmlns="http://www.w3.org/2000/svg" fill="none" viewBox="0 0 40 40" focusable="false"><path fill="none" d="M0 0H40V40H0z"/><rect width="38" height="28" x="1" y="6" fill="#37383B" rx="4"/><path fill="#FFF" fill-rule="evenodd" d="M19.1603 14.8898C19.4438 14.7482 19.7563 14.6744 20.0732 14.6744L20.3094 14.6744C21.3066 14.6744 22.115 15.4828 22.115 16.48C22.115 16.9359 21.9428 17.3703 21.6402 17.7003L15.1672 17.7003C14.7048 17.7003 14.33 18.0751 14.33 18.5375C14.33 18.9999 14.7048 19.3747 15.1672 19.3747L19.4357 19.3747L17.7479 20.6254L15.1672 20.6254C14.7048 20.6254 14.33 21.0002 14.33 21.4626C14.33 21.9249 14.7048 22.2998 15.1672 22.2998L16.4276 22.2998C16.2832 22.6851 16.2066 23.0978 16.2066 23.52C16.2066 25.442 17.7647 27 19.6866 27L19.9228 27C20.4996 27 21.0684 26.8658 21.5843 26.6079L23.3263 25.7372C23.7399 25.5305 23.9076 25.0276 23.7009 24.614C23.4941 24.2004 22.9913 24.0327 22.5777 24.2395L20.8357 25.1102C20.5522 25.2518 20.2397 25.3256 19.9228 25.3256L19.6866 25.3256C18.6894 25.3256 17.881 24.5172 17.881 23.52C17.881 23.0641 18.0532 22.6297 18.3558 22.2998L24.8293 22.2998C25.2917 22.2998 25.6665 21.9249 25.6665 21.4626C25.6665 21.0002 25.2917 20.6254 24.8293 20.6254L20.5603 20.6254L22.2481 19.3747L24.8293 19.3747C25.2917 19.3747 25.6665 18.9999 25.6665 18.5375C25.6665 18.0751 25.2917 17.7003 24.8293 17.7003L23.5684 17.7003C23.7127 17.3149 23.7894 16.9023 23.7894 16.48C23.7894 14.5581 22.2313 13 20.3094 13L20.0732 13C19.4964 13 18.9276 13.1342 18.4117 13.3921L16.6697 14.2628C16.2561 14.4695 16.0884 14.9724 16.2951 15.386C16.5019 15.7996 17.0047 15.9673 17.4183 15.7605L19.1603 14.8898Z"/></svg>

<svg xmlns="http://www.w3.org/2000/svg" fill="none" viewBox="0 0 40 40" focusable="false"><path fill="none" d="M0 0h40v40H0z"/><rect width="38" height="28" x="1" y="6" fill="#35383F" rx="4"/><path fill="#FFF" fill-rule="evenodd" d="M19.16 14.88c.28-.14.59-.21.91-.21h.23c1 0 1.81.81 1.81 1.81 0 .45-.17.89-.47 1.22h-6.48c-.46 0-.83.37-.83.83s.37.84.83.84h4.27l-1.69 1.25h-2.58c-.46 0-.83.38-.83.84s.37.83.83.83h1.26c-.14.39-.22.8-.22 1.23 0 1.92 1.56 3.48 3.48 3.48h.24c.57 0 1.14-.14 1.66-.4l1.74-.87c.41-.2.58-.71.38-1.12a.855.855 0 0 0-1.13-.38l-1.74.88c-.28.14-.6.21-.91.21h-.24c-1 0-1.8-.81-1.8-1.8 0-.46.17-.9.47-1.23h6.47c.47 0 .84-.37.84-.83s-.37-.84-.84-.84h-4.26l1.68-1.25h2.58c.47 0 .84-.38.84-.84a.83.83 0 0 0-.84-.83h-1.26c.15-.39.22-.8.22-1.22A3.47 3.47 0 0 0 20.3 13h-.23c-.58 0-1.15.13-1.66.39l-1.75.87c-.41.2-.58.71-.37 1.12s.71.58 1.12.38z"/></svg>
